X: 9
T:Keswick Bonny Lasses Hornpipe. WI.009
M:C|
Q:180
S:Wm Irwin, 1838 MS, AGG's Transcription
R:Hornipe
O:England
A:Lake District
N:A.G.G writes "these altrernatives are my own", presumably meaning that
N:Irwin has a different conclusion to the B music..CGP.
Z:vmp.Chris Partington.2005
K:D
(3ABc|d2fe dcBA|Bcdc BAGF|\
G2BA GFED|C2A,2 A,2(3ABc|!
d2fe dcBA|Bcdc BAGF|GABc dABG|F2D2 D2:|!
AG|FDFA dAGF|GEGB ecAF|\
FDFA dAGF|G2E2 E2(3ABc|!
d2fe dcBA|Bcdc BAGF|GABc dABG|F2D2 D2:|]
